packages/calcite-ui-icons/icons/location-label-24.svg

<?xml version="1.0" encoding="UTF-8"?><svg id="icons" xmlns="http://www.w3.org/2000/svg" viewBox="0 0 24 24"><defs><style>.cls-1{fill:none;}</style></defs><path d="M21,14h-10v-1h10v1ZM11,7v1h12v11H1v-11h1v-1H0v13h24V7h-13ZM10,11.70703v-6.1416c0-1.41504-1.15039-2.56543-2.56543-2.56543h-1.86914c-1.41504,0-2.56543,1.15039-2.56543,2.56543v6.1416l3.5,3.5,3.5-3.5ZM4,5.56543c0-.86328.70215-1.56543,1.56543-1.56543h1.86914c.86328,0,1.56543.70215,1.56543,1.56543v5.72754l-2.5,2.5-2.5-2.5v-5.72754ZM8,7.5c0-.82715-.67285-1.5-1.5-1.5s-1.5.67285-1.5,1.5.67285,1.5,1.5,1.5,1.5-.67285,1.5-1.5ZM7,7.5c0,.27539-.22461.5-.5.5s-.5-.22461-.5-.5.22461-.5.5-.5.5.22461.5.5Z"/><rect class="cls-1" width="24" height="24"/></svg>

<svg xmlns="http://www.w3.org/2000/svg" viewBox="0 0 24 24"><path d="M21 14H11v-1h10v1zM11 7v1h12v11H1V8h1V7H0v13h24V7H11zm-1 4.707V5.565A2.568 2.568 0 0 0 7.435 3h-1.87A2.568 2.568 0 0 0 3 5.565v6.142l3.5 3.5 3.5-3.5zM4 5.565C4 4.702 4.702 4 5.565 4h1.87C8.298 4 9 4.702 9 5.565v5.728l-2.5 2.5-2.5-2.5V5.565zM8 7.5C8 6.673 7.327 6 6.5 6S5 6.673 5 7.5 5.673 9 6.5 9 8 8.327 8 7.5zm-1 0a.501.501 0 0 1-1 0 .501.501 0 0 1 1 0z"/><path fill="none" d="M0 0h24v24H0z"/></svg>
